X:380
T:Glass of Beer, The
M:C|
L:1/8
R:Reel
D:anop=B000005CME(Touchstone: The New Land)
D:asin=B000005COH(Cherish The Ladies: The Back Door)
D:asin=B000005CM2(Green Linnet Twentieth Anniver: Green Linnet Records: The Twentieth...)
K:Bm
|:fB~B2 fBaB|fB~B2 e2de|fB~B2 ~f3e|1 dfaf e2de:|2 dfaf ~e3c\
|:~d3e ~f3e|defd edBA|~d3e ~f3e|1 dfaf ~e3c:|2 dfaf edba||\
fB~B2 fBaB|fB~B2 e2de|fB~B2 ~f3e|dfaf e2de|\
fB~B2 bBaB|fBeB fede|fB~B2 ~f3e|dfaf e4||
